X:1
T:Title
%%score { ( 1 4 ) | ( 2 3 ) }
L:1/8
M:3/4
K:Eb
V:1 treble nm="Grand Piano"
V:4 treble 
V:2 bass 
V:3 bass 
V:1
 z2 z2[Q:1/4=110] E2 | G2 F2 E2 | A2 G2 F2 | B6 | E4 E2 | c2 B2 G2 | A2 A2 [DB]2 | [EG]6- | %8
[M:2/4] [EG]4 |[M:1/4] [EG]2 |[M:3/4] [EG]2 [DF]2 [CE]2 | [CA]2 [CG]2 [CF]2 | [=B,G]6 | C4 E2 | %14
 D2 F2 [FB]2 | [Gc]2 [Fd]2 [Ec]2 | [DB]6- |[M:2/4] [DB]4 |[M:1/4] B2 |[M:3/4] B2 c2 B2 | B2 e2 B2 | %21
 B6 | A4 A2 | G2 A2 G2 | G2 [_DEB]2 [CEA]2 | [DF]6- |[M:2/4] [DF]4 |[M:1/4] [DF]2 | %28
[M:3/4] G2 F2 E2 | A2 G2 F2 | B4 z2 | c2 d2 e2 | e4 B2 | [B,FA]4 [A,DF]2 | [G,E]6- | %35
[M:2/4] [G,E]4 |] %36
V:2
 z2 z2 [E,G,]2 | [E,B,E]2 [E,A,D]2 [E,G,]2 | [F,B,D]2 [B,D]2 [A,B,D]2 | E6 | z6 | %5
 [A,C]2 [G,B,E]2 [E,E]2 | [F,CE]2 [F,CE]2 [B,,B,]2 | [E,B,]6- |[M:2/4] [E,B,]4 |[M:1/4] [C,E,]2 | %10
[M:3/4] [C,E,]2 [C,A,]2 [C,G,]2 | [F,,F,]2 [G,,E,]2 [A,,F,]2 | [G,,F,]6 | [C,E,]4 [C,F,=A,]2 | %14
 [D,F,B,]2 [D,B,]2 [D,B,]2 | [E,B,]2 [F,B,]2 [F,=A,]2 | [B,,B,]6- |[M:2/4] [B,,B,]4 | %18
[M:1/4][K:treble] [B,DF]2 |[M:3/4] [A,DF]2 [A,DF]2 [A,DF]2 | [G,E]2[K:bass] [G,B,E]2 [G,B,E]2 | %21
 [F,CF]6- | [F,CF]4 [F,C]2 | [F,=B,D]2 [F,B,D]2 [F,B,D]2 | [E,CE]2 G,,2 A,,2 | [B,,B,]6- | %26
[M:2/4] [B,,B,]4 |[M:1/4] [B,,B,]2 |[M:3/4] [E,B,E]2 [E,A,D]2 [E,G,]2 | [F,B,D]2 [B,D]2 [A,B,D]2 | %30
 [B,E]2 z2[K:treble] z2 | [A,CE]2 [A,CE]2 [=A,CF]2 | [B,G]6 | B,,4 B,,2 | E,6- |[M:2/4] E,4 |] %36
V:3
 x6 | x6 | x6 | [G,B,]6- | [G,B,]4 [G,B,_D]2 | x6 | x6 | x6 |[M:2/4] x4 |[M:1/4] x2 |[M:3/4] x6 | %11
 x6 | x6 | x6 | x6 | x6 | x6 |[M:2/4] x4 |[M:1/4][K:treble] x2 |[M:3/4] x6 | x2[K:bass] x4 | x6 | %22
 x6 | x6 | x6 | x6 |[M:2/4] x4 |[M:1/4] x2 |[M:3/4] x6 | x6 | G,4[K:treble] [G,_DE]2 | x6 | x6 | %33
 x6 | x6 |[M:2/4] x4 |] %36
V:4
 x6 | x6 | x6 | x6 | x6 | x6 | x6 | x6 |[M:2/4] x4 |[M:1/4] x2 |[M:3/4] x6 | x6 | x6 | x6 | x6 | %15
 x6 | x6 |[M:2/4] x4 |[M:1/4] x2 |[M:3/4] x6 | x6 | x6 | x6 | x6 | x6 | x6 |[M:2/4] x4 | %27
[M:1/4] x2 |[M:3/4] x6 | x6 | z2 E2 =B2 | x6 | x6 | x6 | x6 |[M:2/4] x4 |] %36

